X: 2108
T: The Buchan Eightsome Reel
P: Timour the Tartar
C:Traditional
R:Reel (10x40)
B:RSCDS 21-8
Z:Anselm Lingnau <anselm@strathspey.org>
M:C|
L:1/8
K:A
"A"A2 c/B/A eA c/B/A|eAaA gAfA|A2 c/B/A eA c/B/A|"E"BEdE cEBE|
"A"A2 c/B/A eA c/B/A|eAaA gAfA|eaec eaec|"E"BABc "A"[A2C2]||
[A2C2]|"E"E2 G/F/E B2 G/F/E|BEdE cEBE|"A"A2 c/B/A e2 c/B/A|eAaA gAfA|
       "A"e^dec "D"agaf|"A"e^dec "D"agaf|"A"ecag fedc|"G"BAGF "E"EFGE|]
%%center Book21/2108-Buchan_Eightsome_Reel-AL.abc

%%sep 1 1 500
%%sep 1 1 500

